icons/lines/quote-down-circle.svg

<svg xmlns="http://www.w3.org/2000/svg" width="24" height="24" viewBox="0 0 24 24" fill="none" stroke="currentColor" stroke-width="2" stroke-linecap="round" stroke-linejoin="round" >
  <path d="M7 12.16H9.67999C10.39 12.16 10.87 12.7 10.87 13.35V14.84C10.87 15.49 10.39 16.03 9.67999 16.03H8.19C7.54 16.03 7 15.49 7 14.84V12.16Z"/>
  <path d="M7 12.16C7 9.36997 7.52 8.89997 9.09 7.96997"/>
  <path d="M13.1401 12.16H15.8201C16.5301 12.16 17.0101 12.7 17.0101 13.35V14.84C17.0101 15.49 16.5301 16.03 15.8201 16.03H14.3301C13.6801 16.03 13.1401 15.49 13.1401 14.84V12.16Z"/>
  <path d="M13.1401 12.16C13.1401 9.36997 13.6601 8.89997 15.2301 7.96997"/>
  <path d="M12 22C17.5228 22 22 17.5228 22 12C22 6.47715 17.5228 2 12 2C6.47715 2 2 6.47715 2 12C2 17.5228 6.47715 22 12 22Z"/>
  </svg>

<svg xmlns="http://www.w3.org/2000/svg" width="24" height="24" viewBox="0 0 24 24" fill="none" stroke="currentColor" stroke-width="2" stroke-linecap="round" stroke-linejoin="round">
  <path d="M13.14 12.16c0-2.79.52-3.26 2.09-4.19" />
  <path d="M13.14 12.16h2.68a1.16 1.16 0 0 1 1.19 1.19v1.49a1.16 1.16 0 0 1-1.19 1.19h-1.49a1.2 1.2 0 0 1-1.19-1.19z" />
  <path d="M7 12.16c0-2.79.52-3.26 2.09-4.19" />
  <path d="M7 12.16h2.68a1.16 1.16 0 0 1 1.19 1.19v1.49a1.16 1.16 0 0 1-1.19 1.19H8.19A1.2 1.2 0 0 1 7 14.84z" />
  <circle cx="12" cy="12" r="10" />
</svg>
